X: 176
T: The Ten Pound Fiddle
M:C
L:1/8
%Q:240
C:J. S. Skinner
Z:Warren Armstrong <warrenarmstrong:eaton.com>
R:Reel
A:Scotland
B:The Fiddle Music of Scotland", James Hunter, ISBN 946868 04 2,
K:A
E | A2 (ED) CEAf | eAfA GBBG | {G}A2 (EC) DFBA | GBeg aAAE |
| A/A/A (ED) CEAf | eAaA GBBG | A/A/A (EC) DFBA | GBeg aA A ||
g | a/a/a (ea)caAg | aeca fBBg | a/a/a (ec)f/f/f (dB) | GBeg aAA(a |
| ga)ea caAa | caAa fBBc | {G}A2 (EC) DFBA | GBeg aA A ||

%%sep 1 1 500

